src/standard/clipboard-checklist.svg

<svg xmlns="http://www.w3.org/2000/svg" viewBox="0 0 36 36">
  <path d="M22 20.71a.62.62 0 0 0-.62.62v2.05h-6.76v-6.76h4.71a.62.62 0 0 0 0-1.24H14a.62.62 0 0 0-.62.62v8a.62.62 0 0 0 .62.62h8a.62.62 0 0 0 .62-.62v-2.67a.62.62 0 0 0-.62-.62Z"/>
  <path d="M17.11 19.56a.63.63 0 1 0-.89.88l1.34 1.34a.63.63 0 0 0 .88 0l4-4a.63.63 0 0 0-.88-.89L18 20.45Z"/>
  <path d="M27 7.38h-4a.62.62 0 0 0-.62.62v1.18h-8.76V8a.62.62 0 0 0-.62-.62H9a.62.62 0 0 0-.62.62v23a.62.62 0 0 0 .62.62h18a.62.62 0 0 0 .62-.62V8a.62.62 0 0 0-.62-.62Zm-.62 23H9.62V8.62h2.76v1.19a.62.62 0 0 0 .62.62h10a.62.62 0 0 0 .62-.62V8.62h2.76ZM12 6.62h3.09a.63.63 0 0 0 .67-.4 2.39 2.39 0 0 1 4.48 0 .6.6 0 0 0 .68.4H24a.62.62 0 0 0 0-1.24h-2.77a3.63 3.63 0 0 0-6.46 0H12a.62.62 0 0 0 0 1.24Z"/>
  <circle cx="18" cy="6" r=".62"/>
</svg>

<svg id="e0773803-535b-448e-b1c4-5c98b8b2b1d9" data-name="Icon" xmlns="http://www.w3.org/2000/svg" viewBox="0 0 36 36">
  <title>Clipboard checklist icon - Black</title>
<desc>complete, list, timeline, planning, steps, task, finish, unfinished, X, checkmark, todo, media and documents</desc>
<metadata><?xpacket begin="﻿" id="W5M0MpCehiHzreSzNTczkc9d"?>
<x:xmpmeta xmlns:x="adobe:ns:meta/" x:xmptk="Adobe XMP Core 8.0-c001 1.000000, 0000/00/00-00:00:00        ">
   <rdf:RDF xmlns:rdf="http://www.w3.org/1999/02/22-rdf-syntax-ns#">
      <rdf:Description rdf:about=""
            xmlns:xmp="http://ns.adobe.com/xap/1.0/"
            xmlns:dc="http://purl.org/dc/elements/1.1/"
            xmlns:cq="http://www.day.com/jcr/cq/1.0"
            xmlns:tiff="http://ns.adobe.com/tiff/1.0/">
         <xmp:rhcc-effective-on>2023-12-08T17:36:54.586Z</xmp:rhcc-effective-on>
         <xmp:rhcc-metadata-complete-moderator>pending</xmp:rhcc-metadata-complete-moderator>
         <xmp:rhcc-translation-id>TRA00d8516d-5227-485b-9493-6925c70cd6b4</xmp:rhcc-translation-id>
         <xmp:brand-content-type>Icon</xmp:brand-content-type>
         <xmp:CreateDate>2023-12-08T17:36:54.586Z</xmp:CreateDate>
         <xmp:rhcc-effective-on-set-on-upload>true</xmp:rhcc-effective-on-set-on-upload>
         <xmp:rhcc-metadata-complete-uploader>pending</xmp:rhcc-metadata-complete-uploader>
         <xmp:rhcc-file-last-modified>2023-12-08T17:38:13.999Z</xmp:rhcc-file-last-modified>
         <xmp:rhcc-audience>rhcc-audience:internal</xmp:rhcc-audience>
         <xmp:rhcc-rights-restricted>no</xmp:rhcc-rights-restricted>
         <xmp:brand-content-subtype>Icon</xmp:brand-content-subtype>
         <xmp:rhcc-derivative-id>DER00d8516d-5227-485b-9493-6925c70cd6b4</xmp:rhcc-derivative-id>
         <xmp:brand-logo-color>Black</xmp:brand-logo-color>
         <xmp:rhcc-notify-portal-subscribers-on-change>yes</xmp:rhcc-notify-portal-subscribers-on-change>
         <dc:format>image/svg+xml</dc:format>
         <dc:modified>2024-02-09T20:20:05.411Z</dc:modified>
         <dc:title>
            <rdf:Alt>
               <rdf:li xml:lang="x-default">Clipboard checklist icon - Black</rdf:li>
            </rdf:Alt>
         </dc:title>
         <dc:description>
            <rdf:Alt>
               <rdf:li xml:lang="x-default">complete, list, timeline, planning, steps, task, finish, unfinished, X, checkmark, todo, media and documents</rdf:li>
            </rdf:Alt>
         </dc:description>
         <cq:lastReplicationAction_scene7>Activate</cq:lastReplicationAction_scene7>
         <cq:lastReplicationAction_publish>Activate</cq:lastReplicationAction_publish>
         <cq:lastReplicated_publish>2024-02-09T21:57:43.569Z</cq:lastReplicated_publish>
         <cq:lastReplicatedBy>workflow-process-service</cq:lastReplicatedBy>
         <cq:lastReplicationAction>Activate</cq:lastReplicationAction>
         <cq:lastReplicatedBy_publish>workflow-process-service</cq:lastReplicatedBy_publish>
         <cq:isDelivered>true</cq:isDelivered>
         <cq:lastReplicated>2024-02-09T21:57:43.569Z</cq:lastReplicated>
         <cq:lastReplicatedBy_scene7>workflow-process-service</cq:lastReplicatedBy_scene7>
         <cq:lastReplicated_scene7>2024-02-09T21:57:43.569Z</cq:lastReplicated_scene7>
         <tiff:ImageLength>36</tiff:ImageLength>
         <tiff:ImageWidth>36</tiff:ImageWidth>
      </rdf:Description>
   </rdf:RDF>
</x:xmpmeta>
                                                                                                    
                                                                                                    
                                                                                                    
                                                                                                    
                                                                                                    
                                                                                                    
                                                                                                    
                                                                                                    
                                                                                                    
                                                                                                    
                                 
<?xpacket end="w"?></metadata>
<g>
    <path d="M22,20.71a.62.62,0,0,0-.62.62v2.05H14.62V16.62h4.71a.62.62,0,0,0,0-1.24H14a.62.62,0,0,0-.62.62v8a.62.62,0,0,0,.62.62h8a.62.62,0,0,0,.62-.62V21.33A.62.62,0,0,0,22,20.71Z"/>
    <path d="M17.11,19.56a.63.63,0,1,0-.89.88l1.34,1.34a.63.63,0,0,0,.88,0l4-4a.63.63,0,0,0-.88-.89L18,20.45Z"/>
    <path d="M27,7.38H23a.62.62,0,0,0-.62.62V9.18H13.62V8A.62.62,0,0,0,13,7.38H9A.62.62,0,0,0,8.38,8V31a.62.62,0,0,0,.62.62H27a.62.62,0,0,0,.62-.62V8A.62.62,0,0,0,27,7.38Zm-.62,23H9.62V8.62h2.76V9.81a.62.62,0,0,0,.62.62H23a.62.62,0,0,0,.62-.62V8.62h2.76Z"/>
    <path d="M12,6.62h3.09a.63.63,0,0,0,.67-.4,2.39,2.39,0,0,1,4.48,0,.6.6,0,0,0,.68.4H24a.62.62,0,0,0,0-1.24H21.23a3.63,3.63,0,0,0-6.46,0H12A.62.62,0,0,0,12,6.62Z"/>
    <circle cx="18" cy="6" r="0.62"/>
  </g>
</svg>
